X:774
T:Reel 774
M:4/4
K:Cmaj
L:1/8
c2Bc GFDF|GEFD B,CDB,|Gc (3cBc GFD^F|GEFD GCC2|c2Gc Gcdc|BGDE FDDF|GC (3CB,C GFGE|BGFD DCC2|c2ec gedc|BGFE DCB,D|cBGc BGFD|GcDD DCC2|
